tde/theme/icons/bluetooth-off.svg

﻿<?xml version="1.0" encoding="utf-8"?>
<!DOCTYPE svg PUBLIC "-//W3C//DTD SVG 1.1//EN" "http://www.w3.org/Graphics/SVG/1.1/DTD/svg11.dtd">
<svg xmlns="http://www.w3.org/2000/svg" xmlns:xlink="http://www.w3.org/1999/xlink" version="1.1" baseProfile="full" width="240" height="240" viewBox="0 0 24.00 24.00" enable-background="new 0 0 24.00 24.00" xml:space="preserve">
	<path fill="#ffffff" fill-opacity="1" stroke-width="0.2" stroke-linejoin="round" d="M 12.9975,5.83L 14.8775,7.71L 13.2813,9.31125L 14.6925,10.7175L 17.71,7.7L 12.0025,2.0025L 11.0013,2.0025L 11.0013,7.03125L 12.9975,9.02875M 5.41,3.99875L 3.99875,5.41L 10.5912,12.0025L 5,17.5875L 6.41125,18.9988L 11.0013,14.4088L 11.0013,22.0025L 12.0025,22.0025L 16.2887,17.71L 18.5888,20L 20,18.5887M 12.9975,18.1687L 12.9975,14.4088L 14.8775,16.2888"/>
</svg>

<svg xmlns="http://www.w3.org/2000/svg" baseProfile="full" width="240" height="240" viewBox="0 0 24 24" xml:space="preserve"><path fill="#fff" d="m12.998 5.83 1.88 1.88-1.597 1.601 1.412 1.406L17.71 7.7l-5.708-5.697h-1V7.03l1.995 1.998M5.41 3.999 3.999 5.41l6.592 6.592L5 17.587 6.411 19l4.59-4.59v7.594h1.002l4.286-4.293 2.3 2.29L20 18.589m-7.002-.42v-3.76l1.88 1.88"/></svg>
